packages/icons/src/components/Icon/assets/small/partner-space.svg

<svg width="16" height="16" viewBox="0 0 16 16" fill="none" xmlns="http://www.w3.org/2000/svg">
<path d="M1.75 10.8333C1.33579 10.8333 1 10.4975 1 10.0833V1.75C1 1.33579 1.33579 1 1.75 1H10.0833C10.4975 1 10.8333 1.33579 10.8333 1.75V10.0833C10.8333 10.4975 10.4975 10.8333 10.0833 10.8333H8.04167C7.62745 10.8333 7.29167 10.4975 7.29167 10.0833C7.29167 9.66912 7.62745 9.33333 8.04167 9.33333H9.33333V2.5H2.5V9.33333H3.79167C4.20588 9.33333 4.54167 9.66912 4.54167 10.0833C4.54167 10.4975 4.20588 10.8333 3.79167 10.8333H1.75Z" fill="#727683"/>
<path d="M5.91675 5.16683C5.50253 5.16683 5.16675 5.50262 5.16675 5.91683V14.2502C5.16675 14.6644 5.50253 15.0002 5.91675 15.0002H14.2501C14.6643 15.0002 15.0001 14.6644 15.0001 14.2502V5.91683C15.0001 5.50262 14.6643 5.16683 14.2501 5.16683H12.2084C11.7942 5.16683 11.4584 5.50262 11.4584 5.91683C11.4584 6.33104 11.7942 6.66683 12.2084 6.66683H13.5001V13.5002H6.66675V6.66683H7.95841C8.37263 6.66683 8.70841 6.33104 8.70841 5.91683C8.70841 5.50262 8.37263 5.16683 7.95841 5.16683H5.91675Z" fill="#727683"/>
</svg>

<svg xmlns="http://www.w3.org/2000/svg" width="16" height="16" fill="none" viewBox="0 0 16 16">
    <path fill="#727683" d="M1.75 10.833a.75.75 0 0 1-.75-.75V1.75A.75.75 0 0 1 1.75 1h8.333a.75.75 0 0 1 .75.75v8.333a.75.75 0 0 1-.75.75H8.042a.75.75 0 0 1 0-1.5h1.291V2.5H2.5v6.833h1.292a.75.75 0 1 1 0 1.5z"/>
    <path fill="#727683" d="M5.917 5.167a.75.75 0 0 0-.75.75v8.333c0 .414.336.75.75.75h8.333a.75.75 0 0 0 .75-.75V5.917a.75.75 0 0 0-.75-.75h-2.042a.75.75 0 0 0 0 1.5H13.5V13.5H6.667V6.667h1.291a.75.75 0 1 0 0-1.5z"/>
</svg>
